X:1
T:Munich, 76.76 D
T:Munich, 76.76 D
T:Neuvermehrtes Gesangbuch, Meiningen, 1693
T:Public Domain Courtesy of the Cyber Hymnal™
C:Neuvermehrtes Gesangbuch, Meiningen, 1693
Z:Public Domain
Z:Courtesy of the Cyber Hymnal™
%%score ( 1 2 ) ( 3 4 )
L:1/8
Q:1/4=110
M:4/4
K:Eb
V:1 treble 
V:2 treble 
V:3 bass 
V:4 bass 
V:1
 (EF) | [EG]2 [Ec]2 [DB]2 [FA]2 | [EG]4 [EG]2 [EG]2 | [EB]2 (AG) [EF]2 [DF]2 | E6 ([B,E][DF]) | %5
 [EG]2 [Gc]2 [FB]2 A2 | [DG]4 [DG]2 [EG]2 | [EB]2 (AG) [EF]2 [DF]2 | E6 [DF]2 | %9
 [DF]2 [=EG]2 [FA]2 [FA]2 | [EG]4 [EG]2 [Fc]2 | [Ee]2 [Gc]2 G2 =A2 | [DB]6 [FB]2 | %13
 [EB]2 [EG]2 [EA]2 B2 | [Ac]4 [Ac]2 [EB]2 | [EA]2 [EG]2 [EF]2 [DF]2 | E6 |] %17
V:2
 E2 | x8 | x8 | x2 E2 x4 | E6 x2 | x6 (FE) | x8 | x2 E2 x4 | E6 x2 | x8 | x8 | x4 G2 (FE) | x8 | %13
 x6 (FG) | x8 | x8 | E6 |] %17
V:3
 (G,A,) | [E,B,]2 (A,G,) [B,,F,]2 [D,B,]2 | [E,B,]4 [E,B,]2 [E,B,]2 | %3
 [G,,B,]2 [A,,C]2 (F,G,) [B,,A,]2 | [E,G,]6 (G,F,) | [E,B,]2 [C,E]2 D2 [F,C]2 | %6
 [G,=B,]4 [G,B,]2 [C,C]2 | [G,,B,]2 [A,,C]2 (F,G,) [B,,A,]2 | [E,G,]6 B,2 | %9
 [A,B,]2 [G,B,]2 [F,C]2 [F,C]2 | [C,C]4 [C,C]2 [C,A,]2 | [C,G,]2 ([C,E][D,D]) [E,C]2 [F,C]2 | %12
 [B,,B,]6 [D,A,]2 | [E,G,]2 [_D,B,]2 [C,E]2 [B,,_D]2 | [A,,C]4 [A,,E]2 [G,,E]2 | %15
 [C,A,]2 [A,,C]2 (F,G,) [B,,A,]2 | [E,G,]6 |] %17
V:4
 E,2 | x2 A,,2 x4 | x8 | x4 B,,2 x2 | x8 | x4 (D,E,) x2 | x8 | x4 B,,2 x2 | x6 B,2 | x8 | x8 | x8 | %12
 x8 | x8 | x8 | x4 B,,2 x2 | x6 |] %17

